www/images/deconnexion.svg

<?xml version="1.0" encoding="UTF-8" standalone="no"?>
<svg
   xmlns:dc="http://purl.org/dc/elements/1.1/"
   xmlns:cc="http://creativecommons.org/ns#"
   xmlns:rdf="http://www.w3.org/1999/02/22-rdf-syntax-ns#"
   xmlns:svg="http://www.w3.org/2000/svg"
   xmlns="http://www.w3.org/2000/svg"
   xmlns:sodipodi="http://sodipodi.sourceforge.net/DTD/sodipodi-0.dtd"
   xmlns:inkscape="http://www.inkscape.org/namespaces/inkscape"
   fill-opacity="1"
   color-rendering="auto"
   color-interpolation="auto"
   stroke="black"
   text-rendering="auto"
   stroke-linecap="square"
   stroke-miterlimit="10"
   stroke-opacity="1"
   shape-rendering="auto"
   fill="black"
   stroke-dasharray="none"
   font-weight="normal"
   stroke-width="1"
   font-family="'Dialog'"
   font-style="normal"
   stroke-linejoin="miter"
   font-size="12"
   stroke-dashoffset="0"
   image-rendering="auto"
   id="svg3052"
   version="1.1"
   inkscape:version="0.48.5 r10040"
   width="100%"
   height="100%"
   sodipodi:docname="deconnexion.svg">
  <metadata
     id="metadata3063">
    <rdf:RDF>
      <cc:Work
         rdf:about="">
        <dc:format>image/svg+xml</dc:format>
        <dc:type
           rdf:resource="http://purl.org/dc/dcmitype/StillImage" />
        <dc:title></dc:title>
      </cc:Work>
    </rdf:RDF>
  </metadata>
  <sodipodi:namedview
     pagecolor="#ffffff"
     bordercolor="#666666"
     borderopacity="1"
     objecttolerance="10"
     gridtolerance="10"
     guidetolerance="10"
     inkscape:pageopacity="0"
     inkscape:pageshadow="2"
     inkscape:window-width="1331"
     inkscape:window-height="750"
     id="namedview3061"
     showgrid="false"
     inkscape:zoom="0.59010102"
     inkscape:cx="372.04724"
     inkscape:cy="526.18109"
     inkscape:window-x="35"
     inkscape:window-y="18"
     inkscape:window-maximized="1"
     inkscape:current-layer="svg3052" />
  <!--Unicode Character 'LEFTWARDS BLACK CIRCLED WHITE ARROW' (U+2B88)-->
  <defs
     id="genericDefs" />
  <g
     id="g3055"
     transform="translate(-22.335502,-78.868879)">
    <g
       id="g3057">
      <path
         d="M 226.4062,218.6719 Q 215.5781,249.3281 188.8594,268.4531 161.7188,288 128.25,288 85.2188,288 54.7031,257.4844 24.1875,226.9688 24.1875,183.9375 q 0,-43.0313 30.5156,-73.5469 Q 85.2188,79.875 128.25,79.875 q 33.4688,0 60.6094,19.5469 26.7187,19.125 37.5468,49.7812 l -125.8593,0 0,-34.5937 -69.4688,69.3281 69.4688,69.3281 0,-34.5937 125.8593,0 z"
         id="path3059"
         inkscape:connector-curvature="0"
         style="stroke:none" />
    </g>
  </g>
</svg>

<?xml version="1.0"?>

<!DOCTYPE svg PUBLIC '-//W3C//DTD SVG 1.0//EN' 'http://www.w3.org/TR/2001/REC-SVG-20010904/DTD/svg10.dtd'>
<svg fill-opacity="1" xmlns:xlink="http://www.w3.org/1999/xlink" color-rendering="auto" color-interpolation="auto" stroke="black" text-rendering="auto" stroke-linecap="square" stroke-miterlimit="10" stroke-opacity="1" shape-rendering="auto" fill="black" stroke-dasharray="none" font-weight="normal" stroke-width="1" xmlns="http://www.w3.org/2000/svg" font-family="&apos;Dialog&apos;" font-style="normal" stroke-linejoin="miter" font-size="12" stroke-dashoffset="0" image-rendering="auto">
  <!--Unicode Character 'LEFTWARDS BLACK CIRCLED WHITE ARROW' (U+2B88)-->
  <defs id="genericDefs" />
  <g>
    <g>
      <path d="M226.4062 218.6719 Q215.5781 249.3281 188.8594 268.4531 Q161.7188 288 128.25 288 Q85.2188 288 54.7031 257.4844 Q24.1875 226.9688 24.1875 183.9375 Q24.1875 140.9062 54.7031 110.3906 Q85.2188 79.875 128.25 79.875 Q161.7188 79.875 188.8594 99.4219 Q215.5781 118.5469 226.4062 149.2031 L100.5469 149.2031 L100.5469 114.6094 L31.0781 183.9375 L100.5469 253.2656 L100.5469 218.6719 L226.4062 218.6719 Z" stroke="none" />
    </g>
  </g>
</svg>
